X: 17
T: Hese de xiongying
%%abc-version 2.0
%%abcx-abcm2ps-target-version 5.9.1 (29 Sep 2008)
%%abc-creator hum2abc beta
%%abcx-conversion-date 2013/10/02 07:44:27
%%abc-edited-by Helmut Schaffrath
%%humdrum-veritas 1429850365
%%humdrum-veritas-data 3895284346
%%continueall 1
%%barnumbers 0
L: 1/8
M: 2/4
K: C
c> d dd2c/ d/ [I:setbarnb 1]| 
e ae4 | 
e a e d | 
c2>d2 d (3e/ g/ e/ | 
[M:3/4]d6 | 
[M:4/4]d c A GA4 | 
A> d cd2d/ g/ d c | 
[M:3/4]AA2d A G | 
E6 | 
E2>G2 A c | 
d4d c | 
C C/ D/ EG3 | 
A ED4 |]  



